X:96
T:Loyal Lover - Roberts
C:Taken down from Anne Roberts, Scobbetor, Widecombe in the Moor, by F.W.B. 1890.
%%VWML:SBG-1-1-432-0
F:http://www.vwml.org/record/SBG/1/1/432
Z:Original Sibleius Transcription by Martin and Shan Graebe
L:1/4
M:4/4
I:linebreak $
K:E
G | F E F G/A/ | B2 c B | G3/2 F/ E F | G2 G | F E F G/A/ | B2 c B | G3/2 F/ E F |$ G3 G/A/ | 
B3/2 B/ B G | B3/2 B/ c G | A B c B | G3 c/ c/ | B c A B/ B/ |$ G3/2 G/ F E | F F B G | F3 z | 
"^chorus" F F/G/ A2 | A B c2 | B c A/ A/ B | G2 F2 |] 
T:Loyal Lover - Parsons
T:Taken down from Jas. Parsons, Lew Down, by S.B.G.
L:1/8
M:4/4
I:linebreak $
K:C
e | A3 B c2 ^G2 | B3 A2 B | c3 d B2 c | A3 z A | E3 =F E2 D2 |$ E3 A2 B | e3 B d2 cB | A3 z A | 
B3 c d2 e2 | c3 B A3 A | ^G3 A B3 c |$ A3 z A/ A/ | E3 =F E2 D/ D/ | E3 E A2 (3^G/A/B/A B | 
e3 B d2 cB | A4  |] 



